X: 1
T:Hippodrome -- Reel
M:C|
L:1/8
C:G.L.TRACY.
R:reel
B:Ryan's Mammoth Collection
N:282
Z:Contributed by Ray Davies,  ray:davies99.freeserve.co.uk
K:D
vAG|\
FAdB AFDF | GABc d2(cd) | Bdcd Adcd | cgec ABAG |
FAdB AFDF | GABc d2(cd) | Bdcd Adcd | edce d2:|
K:Bb
|:vdc|\
BFBd BFBd | cAFA BABd | edce dcBd | cdcA F^FGA |
BFBd BFBd | cAFA BABc | dA^FA =B^cd=e | ^fd=e^c d2:|
